X:1
T:6 Lieder, Op.4
T:Religion
T:6 Lieder, Op.4
T:3. Religion 
T:Emilie Zumsteeg
T:Aloys Wilhelm  Schreiber
T:2.
T:3.
T:Wenn in des Tempels heilig düstern Hallen, Erhabener Empfindung Flug dich lenkt, Wenn fromme Töne lieblich dich umwallen, In ihrem Strom sich sanft die Brust versenkt, 
T:Wenn in des Lebens langem Schmerz versunken Des Trostes Stimme freundlich dir genaht, In Zweifels Nacht und Wahn, der Himmelsfunken Des höhern Daseins dir geleuchtet hat: 
T: Religion,   die ewig in dir glüht!
T: Religion,   die dich zu Gott entzückt.
T:Creative Commons copyright waiver (CC0 1.0 Universal)
T:Creative Commons copyright waiver (CC0 1.0 Universal)
C:Emilie Zumsteeg
Z:Aloys Wilhelm  Schreiber
Z:Creative Commons copyright waiver (CC0 1.0 Universal)
%%score 1 { ( 2 4 ) | ( 3 5 6 ) }
L:1/8
Q:1/4=71
M:4/4
K:Eb
V:1 treble nm="Voice"
V:2 treble nm="Pianoforte"
V:4 treble 
V:3 bass 
V:5 bass 
V:6 bass 
V:1
"^Feierlich, mit hohem Ausdruck" z5 |:!p!!<(! E G =A!<)! |{/c} B3 B e e d c | B2 =A2 z _A B A | %4
w: |1. Was dich er-|greift, wenn be- tend zu den|Ster- nen dein Herz dir|
 (G2 f3/2) e/ (e/F/) (d/c/) (B/A/) (G/F/) | (E2 D2) z!<(! F F F!<)! | %6
w: un- * be- kan- * te * Sehn- * sucht *|trägt, _ was dich hin-|
!>(! G2 F2!>)! F"^cres" F G A | (cB) B2 z B B B |!f! (d2 c) B!p! =A G F E | %9
w: auf- zieht zu ver- wand- ten|Fer- * nen und mit der|Gluht _ der An- dacht dich be-|
 (E2 D2)"_dol" z2!mp! (c"_Spelling: \n\"ist's\"    v.1\n"B) | !tenuto!.D2 (cB) E E c B | %11
w: wegt. * Sie *|ist’s die * tief aus dei- nem|
 A3/2 A/ A z z!<(! G G G!<)! | (B2 A2) z!<(! F F F!<)! | (c2 !tenuto!.B) G B A G F | %14
w: In- nern dringt, Re- li- gi-|on, _ Re- li- gi-|on, _ die dir Er- hö- rung|
"^I suspect \nthese should be \nappogiaturas\nV\nV\n\n\n\n\n\n\n\n\n\n\n\n\n\nV\nV\n\n"{/F} E2 z2 z4 | %15
w: bringt!|
 z8 | z4 z :|[K:Eb] (cB) | %18
w: ||Sie *|
 D D c B E E c3/2"_Modern spelling:\n\"Gemüt\"  v.1\n\"glüht\"    v.2\n\n" B/ | (B2 A2) | %20
w: spricht zu dir, sie rüh- ret dein Ge-|müt, _|
[K:Eb] (cB) | %21
w: Sie _|
"_Spelling:\n\"war's\"   v.1\n" D2"_^\n|\n|\n|\n|\n|\n|\n|\n|\nLieder.net has 'Daseins' where original has 'Daseyns'\n- I don't know German and can't judge which is appropriate\n" (cB) E E c B | %22
w: war's die _ dich dem schwe- ren|
"_Modern spelling:\n     \"entrückt\"   v.1\n     \"entzückt\"   v.2\n" B3/2 A/ A | %23
w: Staub en- trückt,|
V:2
!pp! z [B,EG][B,EG][B,EG] z |:!<(! [B,EG][B,EG][C_G=A]!<)! | %2
!p! z [B,FB][B,FB][B,FB] z [EGe][Gd][Gc] | z [CEB][CE=A][CEA] z [B,F_A][B,FA][B,FA] | %4
 z [B,EG][B,EG][B,EG] z [A,CF][A,CF][A,CF] | %5
 [G,B,E][_G,B,E][F,B,D][F,B,D] z [F,B,D][F,B,D][F,B,D] | %6
 z [F,CE][F,CE][F,CE] z"_cres" [F,B,D][F,B,D][F,B,D] | %7
 z [G,B,E][G,B,E][G,B,E] z [B,_D=E][B,DE][B,DE] |!f! [=DF]"_decresc:"!>(!fed!>)!!p! cB=A>c | %9
 (c2 B2) z4 |!mp! [_A,B,D]4 [B,E]4 | [A,DF]4 z [B,C=EG][B,_DEG][B,CEG] | %12
 [=EG]2 [FA]2 z [=DF][DF][DF]- | [DF]2 G2 EFBA |{/A} [B,G]2 z2 z!<(! ([gbe'][ad'][gc']!<)! | %15
 [fb]!>![fa][eg][e_gc'] [ef] z [db]) z |!>(! [Afb]2 [=Ge]2!>)! z :|[K:Eb] z2 | z8 | z4 |[K:C] z2 | %21
 z8 | z2 z | %23
V:3
!pp! [E,,E,]4 [E,,E,] |: z z2 | [D,,D,]4 [C,,C,]4 | [F,,F,]4 [D,,D,]4 | [E,,E,]4 [A,,,A,,]4 | %5
 [B,,,B,,]4 [B,,,B,,]4 | [=A,,,=A,,]4 [_A,,,_A,,]4 | [G,,,G,,]4 [_G,,,_G,,]4 | [F,,,F,,]4 =A,2 C2 | %9
 (=A,2 B,2) z4 | B,,4 G,2 _G,2 | B,,,4 B,,4 |[I:staff -1] C4[I:staff +1] x [A,B,][A,_C][A,B,]- | %13
 [A,B,]2 G,2[I:staff -1] C2 B,2 |[I:staff +1] _E,,4!p! z[I:staff -1] (gfe | %15
 d!>!=Bc=A _B[I:staff +1] z"^A flat added"[I:staff -1] [B,!courtesy!_A])[I:staff +1] z | %16
 (!>!D2 E2) z :|[K:Eb] z2 | z8 | z4 |[K:C] z2 | z8 | z2 z | %23
V:4
 x5 |: x3 | x8 | x8 | x8 | x8 | x8 | x8 | B, F2 z F2 F2 | F4 x4 | x8 | x8 | x8 | x2 E=E- x4 | x8 | %15
 x8 | x5 :|[K:Eb] x2 | x8 | x4 |[K:C] x2 | x8 | x3 | %23
V:5
 x5 |: x3 | x8 | x8 | x8 | x8 | x8 | x8 | x4 F,4 | B,,4 x4 | x4 B,,4 | x8 | A,,4 A,,4 | %13
 G,,4 G,,2 A,,2 | x8 | x8 | E,4 z :|[K:Eb] z2 | x8 | x4 |[K:C] x2 | x8 | x3 | %23
V:6
 x5 |: x3 | x8 | x8 | x8 | x8 | x8 | x8 | x8 | x8 | x8 | x8 | x8 | x2 B,2 x4 | x8 | x8 | x5 :| %17
[K:Eb] x2 | x8 | x4 |[K:C] x2 | x8 | x3 | %23

